public/socials/tiktok.svg

<svg fill="none" height="33" viewBox="0 0 28 33" width="28" xmlns="http://www.w3.org/2000/svg"><path d="m20.7506 12.0224c2.0429 1.4725 4.5456 2.339 7.2486 2.339v-5.24474c-.5116.0002-1.0218-.05364-1.5223-.16066v4.1283c-2.7027 0-5.2051-.8663-7.2485-2.3387v10.703c0 5.3542-4.3045 9.6943-9.61404 9.6943-1.98111 0-3.82254-.6039-5.35215-1.6397 1.74584 1.8001 4.18053 2.9166 6.87399 2.9166 5.3099 0 9.6146-4.34 9.6146-9.6945v-10.7029zm1.878-5.29128c-1.0441-1.15013-1.7297-2.63647-1.878-4.27973v-.67453h-1.4425c.3631 2.08849 1.6017 3.87277 3.3205 4.95426zm-15.00814 18.66348c-.58337-.7711-.89869-1.7146-.89721-2.6847 0-2.4487 1.96886-4.4343 4.39795-4.4343.4526-.0002.9026.0698 1.3341.2078v-5.362c-.5042-.0696-1.0131-.0993-1.5217-.0884v4.1735c-.4316-.138-.8818-.208-1.33466-.2077-2.429 0-4.39775 1.9853-4.39775 4.4344 0 1.7318.98405 3.231 2.41927 3.9614z" fill="#ff004f"/><path d="m19.2285 10.7455c2.0434 1.4724 4.5456 2.3387 7.2485 2.3387v-4.12831c-1.5087-.32408-2.8443-1.11901-3.8485-2.22477-1.7188-1.0816-2.9573-2.86588-3.3204-4.95426h-3.7891v20.94814c-.0086 2.4422-1.9741 4.4196-4.3979 4.4196-1.42824 0-2.69721-.6865-3.50079-1.7501-1.435-.7303-2.41916-2.2296-2.41916-3.9611 0-2.4489 1.96875-4.4345 4.39775-4.4345.4654 0 .9139.0731 1.3347.2077v-4.1735c-5.21631.1087-9.41138 4.4064-9.41138 9.6921 0 2.6385 1.04464 5.0305 2.74017 6.7782 1.52961 1.0356 3.37094 1.6397 5.35215 1.6397 5.30966 0 9.61406-4.3404 9.61406-9.6945z" fill="#000"/><path d="m26.477 8.95572v-1.11602c-1.3606.00199-2.6942-.38219-3.8485-1.10864 1.0218 1.12796 2.3672 1.9058 3.8485 2.22489m-7.169-7.17926c-.0346-.19955-.0612-.40043-.0797-.60215v-.67454h-5.2318v20.9484c-.0083 2.4419-1.9738 4.4193-4.39775 4.4193-.68717.0011-1.36496-.161-1.97859-.473.80357 1.0634 2.07254 1.7497 3.50074 1.7497 2.4238 0 4.3895-1.9771 4.398-4.4193v-20.9483zm-8.3742 11.25631v-1.1883c-.4372-.0603-.8779-.0904-1.31919-.0903-5.31016 0-9.61461 4.3403-9.61461 9.694 0 3.3566 1.6917 6.3147 4.26245 8.0547-1.69553-1.7476-2.74017-4.1397-2.74017-6.7781 0-5.2855 4.19497-9.5833 9.41152-9.692z" fill="#00f2ea"/></svg>

<svg width="28" height="33" viewBox="0 0 28 33" fill="none" xmlns="http://www.w3.org/2000/svg">
<path d="M20.7506 12.0224C22.7935 13.4949 25.2962 14.3614 27.9992 14.3614V9.11666C27.4876 9.11686 26.9774 9.06302 26.4769 8.956V13.0843C23.7742 13.0843 21.2718 12.218 19.2284 10.7456V21.4486C19.2284 26.8028 14.9239 31.1429 9.61436 31.1429C7.63325 31.1429 5.79182 30.539 4.26221 29.5032C6.00805 31.3033 8.44274 32.4198 11.1362 32.4198C16.4461 32.4198 20.7508 28.0798 20.7508 22.7253V12.0224H20.7506ZM22.6286 6.73112C21.5845 5.58099 20.8989 4.09465 20.7506 2.45139V1.77686H19.3081C19.6712 3.86535 20.9098 5.64963 22.6286 6.73112ZM7.62046 25.3946C7.03709 24.6235 6.72177 23.68 6.72325 22.7099C6.72325 20.2612 8.69211 18.2756 11.1212 18.2756C11.5738 18.2754 12.0238 18.3454 12.4553 18.4834V13.1214C11.9511 13.0518 11.4422 13.0221 10.9336 13.033V17.2065C10.502 17.0685 10.0518 16.9985 9.59894 16.9988C7.16994 16.9988 5.20119 18.9841 5.20119 21.4332C5.20119 23.165 6.18524 24.6642 7.62046 25.3946Z" fill="#FF004F"/>
<path d="M19.2285 10.7455C21.2719 12.2179 23.7741 13.0842 26.477 13.0842V8.95589C24.9683 8.63181 23.6327 7.83688 22.6285 6.73112C20.9097 5.64952 19.6712 3.86524 19.3081 1.77686H15.519V22.725C15.5104 25.1672 13.5449 27.1446 11.1211 27.1446C9.69286 27.1446 8.42389 26.4581 7.62031 25.3945C6.18531 24.6642 5.20115 23.1649 5.20115 21.4334C5.20115 18.9845 7.1699 16.9989 9.5989 16.9989C10.0643 16.9989 10.5128 17.072 10.9336 17.2066V13.0331C5.71729 13.1418 1.52222 17.4395 1.52222 22.7252C1.52222 25.3637 2.56686 27.7557 4.26239 29.5034C5.792 30.539 7.63333 31.1431 9.61454 31.1431C14.9242 31.1431 19.2286 26.8027 19.2286 21.4486L19.2285 10.7455Z" fill="black"/>
<path d="M26.477 8.95572V7.8397C25.1164 7.84169 23.7828 7.45751 22.6285 6.73106C23.6503 7.85902 24.9957 8.63686 26.477 8.95595M19.308 1.77669C19.2734 1.57714 19.2468 1.37626 19.2283 1.17454V0.5H13.9965V21.4484C13.9882 23.8903 12.0227 25.8677 9.59875 25.8677C8.91158 25.8688 8.23379 25.7067 7.62016 25.3947C8.42373 26.4581 9.6927 27.1444 11.1209 27.1444C13.5447 27.1444 15.5104 25.1673 15.5189 22.7251V1.7768L19.308 1.77669ZM10.9338 13.033V11.8447C10.4966 11.7844 10.0559 11.7543 9.61461 11.7544C4.30445 11.7544 0 16.0947 0 21.4484C0 24.805 1.6917 27.7631 4.26245 29.5031C2.56692 27.7555 1.52228 25.3634 1.52228 22.725C1.52228 17.4395 5.71725 13.1417 10.9338 13.033Z" fill="#00F2EA"/>
</svg>
